X: 62
T: No_154_I_Am_Going_to_the_Mountain.krn
N: Derived from No_154_I_Am_Going_to_the_Mountain.krn
%%abc-version 2.0
%%abcx-abcm2ps-target-version 5.9.1 (29 Sep 2008)
%%abc-creator hum2abc beta
%%abcx-conversion-date 2019/03/15 08:37:56
%%humdrum-veritas 989228612
%%humdrum-veritas-data 2862335130
%%linebreak <none>
%%barnumbers 0
L: 1/4
M: 2/4
K: A clef=bass
[K:clef=bass][M:2/4]DB, ||  
[M:3/4]E3 ||  
[M:2/4]B,A, ||  
[M:3/4]B,3 ||  
[M:2/4]DB, ||  
[M:3/4]A,3 | 
A,zA, | 
B,3 ||  
[M:2/4]A,(D ||  
[M:3/4]B,3) ||  
[M:2/4]A,(A, ||  
[M:3/4]E,)D,B,,/ z/ ||  
[M:2/4]D,E, | 
E,A, | 
(F,D,) ||  
[M:3/4]E,3 | 
E,2-E,/E,/ | 
[M:2/4]E,z :|]  



